X:1
T:Title
%%score { 1 | 2 }
L:1/8
M:6/8
K:C
V:1 treble nm="Grand Piano"
V:2 bass 
V:1
 z3 z2[Q:1/4=90] [EG] | [Ec][Ec][Ec] [EB][EA][EG] | [EA][EB][EA] [EG]EC | [EG]3 [EG]3 | %4
[M:5/8] [FG]-[FG]- [FG]3 |[M:1/8] G |[M:3/4] BB BB AG | AB AF ED | G3 [FG]3 | %9
[M:5/8] [EG]-[EG]- [EG]3 |[M:1/8] [EG] |[M:3/4] [Ge][Ge] [Ge][Ge] [Gd][Gc] | %12
 [Ac][Ac] [Ac][Ac] [GB][FA] | [EG]3 [Ge]3 |[M:5/8] [Gd]-[Gd]- [Gd]3 |[M:1/8] [Gd] | %16
[M:3/4] [Ge][Ge] [Ge][Ge] [Gd][Gc] | [Ac][Ac] [Ac][Ac] [GB]A | G3 d3 |[M:5/8] [Ec]-[Ec]- [Ec]3 |] %20
V:2
 z3 z2 [C,C] | [C,G,][C,G,][C,G,] [C,G,][C,A,][C,C] | [C,C][C,C][C,C] [C,C][C,G,C][C,E,] | %3
 [C,C]3 [^C,_B,]3 |[M:5/8] [D,B,]-[D,B,]- [D,B,]3 |[M:1/8][K:treble] [G,B,F] | %6
[M:3/4] [G,DF][G,DF] [G,DF][G,DF] [G,CF][G,B,F] | %7
 [G,B,F][G,B,F] [G,B,F][K:bass][G,B,D] [G,C][F,G,B,] | [E,G,C]3 [D,B,]3 | %9
[M:5/8] [C,C]-[C,C]- [C,C]3 |[M:1/8] [C,C] |[M:3/4] [C,C][C,C] [C,C][C,C] [D,B,][E,C] | %12
 [F,C][F,C] [F,C][F,C] [F,C][F,C] | [C,C]3 [C,C]3 |[M:5/8] [G,B,]-[G,B,]- [G,B,]3 |[M:1/8] [G,B,] | %16
[M:3/4] [C,C][C,C] [C,C][C,C] [D,B,][E,C] | [F,C][F,C] [F,C][F,C] [F,C][F,CF] | [G,CE]3 [G,,B,F]3 | %19
[M:5/8] [C,G,]-[C,G,]- [C,G,]3 |] %20

